!!!COM: Samuel Scheidt
!!!OPR: Tabulatura nova
!!!OTL: 8. Canon a 3 Voc. in unisono.  Magnificat VIII. Toni.
!!!YOR: S. Scheidt, Werke, edited by G. Harms and C. Mahrenholz
!!!YOR: Vol. VI/1, Hamburg (1923-1962).
**kern	**kern	**kern
*CF	*conseq	*guida
*k[]	*k[]	*k[]
*M4/2	*M4/2	*M4/2
*Trd7c12	*	*
!4'stop	!	!
=1-	=1-	=1-
1G	2r	4g
.	.	4f
.	4g	4e
.	4f	4d
1A	4e	4c
.	4d	4d
.	4c	4e
.	4d	4f
=2	=2	=2
1G	4e	2g
.	4f	.
.	2g	2.g
1c	2.g	.
.	.	8a
.	.	8b
.	.	4cc
.	8a	4cc
.	8b	.
=3	=3	=3
1c	4cc	4ee
.	4cc	2cc
.	4ee	.
.	2cc	8b
.	.	8a
1c	.	2.g
.	8b	.
.	8a	.
.	[2g	.
.	.	4a
=4	=4	=4
1B	4g]	2b
.	4a	.
.	2b	4r
.	.	2g
1c	4r	.
.	2g	4cc
.	.	4r
.	4cc	4a
=5	=5	=5
1d	4r	2f
.	4a	.
.	2f	4r
.	.	4a
1c	4r	4.cc
.	4a	.
.	.	8b
.	4.cc	4a
.	.	4g
.	8b	.
=6	=6	=6
1d	4a	4f
.	4g	4g
.	4f	2a
.	4g	.
1c	2a	4e
.	.	4f
.	4e	2g
.	4f	.
=7	=7	=7
1c	2g	2c
.	2c	2.cc
1c	2.cc	.
.	.	4b
.	.	4a
.	4b	4g
=8	=8	=8
1d	4a	4f
.	4g	4g
.	4f	4a
.	4g	4b
1c	4a	2cc
.	4b	.
.	2cc	4g
.	.	4a
=9	=9	=9
1c	4g	4e
.	4a	4cc
.	4e	4g
.	4cc	4a
1c	4g	4.e
.	4a	.
.	.	8f
.	4.e	4g
.	.	4a
.	8f	.
=10	=10	=10
1B	4g	2b
.	4a	.
.	2b	2.g
1c	2.g	.
.	.	8a
.	.	8b
.	.	[2cc
.	8a	.
.	8b	.
=11	=11	=11
1A	[2cc	4cc]
.	.	4dd
.	4cc]	2.ee
.	4dd	.
[1G	2.ee	.
.	.	8dd
.	.	8cc
.	.	4b
.	8dd	4cc
.	8cc	.
=12	=12	=12
0G_	4b	4dd
.	4cc	4.g
.	4dd	.
.	.	8a
.	4.g	8b
.	.	8cc
.	.	4dd
.	8a	.
.	8b	4ee
.	8cc	.
.	4dd	4b
.	4ee	4cc
=13	=13	=13
0G]	4b	4dd
.	4cc	4ee
.	4dd	4b
.	4ee	4cc
.	1b	1dd
==	==	==
*-	*-	*-
!!!CDT: 1587///-1654/3/30
!!!OCY: Deutschland
!!!ODT: 1624
!!!AFR: cantus firmus canon
!!!AST: polyphony
!!!AMT: simple quadruple
!!!AIN: vox
!!!YEP: David Huron and Denis Collins
!!!YEN: Canada
!!!EEV: 1.0
!!!RDT: 1995 April 29
!!!YED: 1995 August 31
